X: 5717
T: Cadgers Of The Canongate
R: reel
M: 4/4
K: Gmajor
B|GBGB de/f/ ge|dBGB A/A/A AB|GBGB de/f/ ge|dBAB G2 G:|
g|bage gedB|dBdb a2 ga|bage gedB|GBdB G2 G
z|bage gedB|dBdb a2 ga|bage eddB|dBAB G2 G||

